!!!Genre:	Sher
!!!Mode:	Major
!!!Listening/dance:	dance
!!!One_Mode:	yes
**kern
*thru
*I"P1
*clefG2
*k[f#]
*G:
*M2/4
*>A
=1
8d
4g
8g
=2
8gL
8f#
8e
8f#J
=3
2g
=4
4g
4r
=5
8g
4b
8b
=6
8bL
8a
8g
8aJ
=7
2b
=8
4b
4r
=9
8g
4cc
8cc
=10
8ddL
8ddJ
4b
=11
8ccL
8ccJ
4a
=12
(16bLL
16ccJ
8bJ)
4g
=13
8.ddL
16bJk
8ccL
8aJ
=14
8bL
8gJ
8aL
8f#J
=15
2g
=16
4g
4r
=17||
*>B
2gg
=18
2dd
=19
8ccL
8bJ
16ccLL
16bJ
8aJ
=20
4g
8r
16gLL
16gJJ
=21
4b
4cc
=22
4dd
16ee-XLL
16ddJ
8ccJ
=23
2dd
=24
4gg
4r
=25
2gg
=26
4.dd
8b
=27
8ccL
8bJ
16ccLL
16bJ
8aJ
=28
2g
=29
8ddL
8bJ
8ccL
8aJ
=30
8bL
8gJ
8aL
8f#J
=31
2g
=32
4g
4r
==
*-
